svg/logitech-legacy.svg

<?xml version="1.0" encoding="UTF-8" standalone="no"?>
<!-- Created with Inkscape (http://www.inkscape.org/) -->
<svg
   xmlns:dc="http://purl.org/dc/elements/1.1/"
   xmlns:cc="http://web.resource.org/cc/"
   xmlns:rdf="http://www.w3.org/1999/02/22-rdf-syntax-ns#"
   xmlns:svg="http://www.w3.org/2000/svg"
   xmlns="http://www.w3.org/2000/svg"
   xmlns:sodipodi="http://sodipodi.sourceforge.net/DTD/sodipodi-0.dtd"
   xmlns:inkscape="http://www.inkscape.org/namespaces/inkscape"
   width="522.63898"
   height="473.39651"
   id="svg1881"
   sodipodi:version="0.32"
   inkscape:version="0.44"
   version="1.0"
   sodipodi:docbase="C:\Dokumente und Einstellungen\Andreas\Eigene Dateien\Eigene Bilder\sonstiges\Logos\Vektor\Computer, Electronics"
   sodipodi:docname="Logitech.svg">
  <defs
     id="defs1883">
  <metadata
   id="CorelCorpID_0Corel-Layer" />

  
  
 </defs>
  <sodipodi:namedview
     id="base"
     pagecolor="#ffffff"
     bordercolor="#666666"
     borderopacity="1.0"
     inkscape:pageopacity="0.0"
     inkscape:pageshadow="2"
     inkscape:zoom="0.35"
     inkscape:cx="350"
     inkscape:cy="520"
     inkscape:document-units="px"
     inkscape:current-layer="layer1"
     inkscape:window-width="1280"
     inkscape:window-height="912"
     inkscape:window-x="-4"
     inkscape:window-y="-4" />
  <metadata
     id="metadata1886">
    <rdf:RDF>
      <cc:Work
         rdf:about="">
        <dc:format>image/svg+xml</dc:format>
        <dc:type
           rdf:resource="http://purl.org/dc/dcmitype/StillImage" />
      </cc:Work>
    </rdf:RDF>
  </metadata>
  <g
     inkscape:label="Ebene 1"
     inkscape:groupmode="layer"
     id="layer1"
     transform="translate(-259.4607,-194.2353)">
    <g
       id="g1906">
      <path
         d="M 730.70019,556.52097 C 731.67903,556.52097 732.48364,556.20548 734.60103,555.22695 C 741.43113,552.28834 746.95993,551.14254 753.1427,551.14254 C 770.87037,551.14254 782.09969,561.89217 782.09969,579.30434 L 782.09969,631.51794 C 782.09969,632.83099 780.96355,633.96713 779.66017,633.96713 L 769.2517,633.96713 C 767.94829,633.96713 766.81187,632.83099 766.81187,631.51794 L 766.81187,579.62929 C 766.81187,567.90806 760.78671,562.38168 747.9384,562.38168 C 743.86365,562.38168 740.45223,563.02839 736.87386,564.32242 C 732.00144,566.12461 730.20861,568.39023 730.20861,572.94744 L 730.20861,631.51792 C 730.20861,632.83097 729.22977,633.96711 727.76878,633.96711 L 717.51097,633.96711 C 716.20756,633.96711 715.08773,632.83097 715.08773,631.51792 L 715.08773,522.51729 C 715.08773,521.22326 716.20756,520.08439 717.51097,520.08439 L 727.76878,520.08439 C 729.22977,520.08439 730.20861,521.22324 730.20861,522.51729 L 730.20861,556.35615 L 730.70014,556.521 L 730.70019,556.52097 z M 582.2235,595.27208 C 582.2235,612.01398 592.79893,623.24367 608.73373,623.24367 C 614.43673,623.24367 621.91355,620.96145 628.41181,617.22545 L 629.71522,616.57842 C 630.3716,616.08176 631.35013,615.92416 631.83259,615.92416 C 633.12662,615.92416 634.11453,617.0606 634.11453,618.51224 L 634.11453,624.87163 C 634.11453,627.46907 633.62542,628.11609 630.53614,629.42643 C 623.53908,632.68025 614.43673,634.64698 606.30074,634.64698 C 582.22341,634.64698 567.08578,618.68647 567.08578,593.47223 C 567.08578,567.11963 581.23506,550.52834 603.85398,550.52834 C 625.00967,550.52834 638.83652,565.16946 638.83652,587.45394 L 638.83652,591.8466 C 638.83652,593.14759 637.85768,594.28613 636.38733,594.28613 L 582.22341,594.28613 L 582.22341,595.27192 L 582.2235,595.27208 z M 623.70646,581.27133 C 623.70646,569.71707 615.41537,561.75085 603.20503,561.75085 C 591.16377,561.75085 582.38115,570.53105 582.22354,582.89931 L 623.70651,582.89931 C 623.70651,582.24988 623.70651,581.5959 623.70651,581.27135 L 623.70646,581.27133 z M 706.58059,617.69103 C 707.72608,617.69103 708.70492,618.82747 708.70492,620.62028 L 708.70492,627.12792 C 708.70492,629.08769 708.2155,629.89232 706.58059,630.70631 C 701.05148,633.46829 691.6149,635.26111 683.16613,635.26111 C 657.62766,635.26111 642.481,619.81567 642.481,593.45607 C 642.481,567.26088 658.75704,551.14247 685.27431,551.14247 C 692.26199,551.14247 699.2518,552.45524 705.76638,555.22688 C 708.05796,556.02425 708.70499,556.85244 708.70499,558.31343 L 708.70499,565.95749 C 708.70499,567.58545 707.891,568.71496 706.58065,568.71496 C 705.76638,568.71496 705.44423,568.57366 703.98322,567.74308 C 697.15101,564.00014 691.78193,562.53915 684.95214,562.53915 C 668.03603,562.53915 658.43244,573.44368 658.43244,592.7924 C 658.43244,612.4871 668.35845,623.87408 685.27422,623.87408 C 691.29244,623.87408 697.47551,622.24821 703.32677,618.99441 L 704.14769,618.6792 C 705.11929,618.01588 705.93356,617.69101 706.58059,617.69101 L 706.58059,617.69103 z M 515.85833,563.21185 C 514.54798,563.21185 513.4188,562.07329 513.4188,560.77232 L 513.4188,554.27164 C 513.4188,552.9613 514.54798,551.82485 515.85833,551.82485 L 524.81516,551.82485 L 524.81516,532.63377 C 524.81516,531.33036 525.78464,530.18698 527.24563,530.18698 L 537.48685,530.18698 C 538.79025,530.18698 539.93603,531.33036 539.93603,532.63377 L 539.93603,551.82485 L 563.35951,551.82485 C 564.65354,551.82485 565.78999,552.9613 565.78999,554.27164 L 565.78999,560.77232 C 565.78999,562.24027 564.65354,563.21185 563.35951,563.21185 L 539.93603,563.21185 L 539.93603,610.39542 C 539.93603,619.33565 543.52167,623.24372 551.64791,623.24372 C 554.57685,623.24372 557.49886,622.60365 559.93869,621.2933 L 561.74087,620.31447 C 562.54548,619.9899 563.20186,619.83229 563.68193,619.83229 C 564.98531,619.83229 565.78994,620.79453 565.78994,622.43877 L 565.78994,628.29003 C 565.78994,629.90865 565.47473,630.56501 564.00647,631.21204 C 559.93866,633.33668 552.94163,634.647 547.08343,634.647 C 532.93897,634.647 524.81509,626.97969 524.81509,613.81618 L 524.81509,563.21189 L 515.85826,563.21189 L 515.85833,563.21185 z M 487.34846,631.51788 L 487.34846,554.89518 C 487.34846,553.59177 488.48491,552.45535 489.78105,552.45535 L 500.03191,552.45535 C 501.49986,552.45535 502.47174,553.59179 502.47174,554.89518 L 502.47174,631.51788 C 502.47174,632.83093 501.49986,633.96706 500.03191,633.96706 L 489.78105,633.96706 C 488.48491,633.96706 487.34846,632.83093 487.34846,631.51788 z M 494.99224,520.08435 C 501.0011,520.08435 504.09732,523.33817 504.09732,529.19878 C 504.09732,535.20765 501.0011,538.30386 494.81834,538.30386 C 488.80948,538.30386 485.71326,535.05004 485.71326,529.03182 C 485.71326,523.49578 489.13405,520.08435 494.99224,520.08435 z M 453.75166,629.56051 C 447.73344,632.65672 442.20706,633.96706 436.17948,633.96706 C 412.92508,633.96706 397.46096,617.69103 397.46096,593.28875 C 397.46096,568.39004 414.06157,551.14247 437.97196,551.14247 C 442.85404,551.14247 447.40161,551.97306 450.98722,553.43405 C 451.9588,553.91623 453.42705,554.73746 455.21261,555.88324 C 456.19839,556.35606 456.52326,556.52091 457.50179,556.52091 L 458.14187,556.35606 L 458.14187,555.22686 C 458.14187,553.26709 458.96279,552.45521 460.5817,552.45521 L 469.20429,552.45521 C 470.66529,552.45521 471.64624,553.59166 471.64624,554.89504 L 471.64624,635.75038 C 471.64624,656.56006 458.14185,667.63187 433.09261,667.63187 C 423.82299,667.63187 413.083,665.83906 405.91907,662.91706 C 402.34279,661.45606 401.53576,660.64207 401.53576,658.35985 L 401.53576,651.53702 C 401.53576,649.90182 402.3428,648.76568 403.6462,648.76568 C 404.30016,648.76568 405.10478,649.09025 405.76146,649.41271 L 407.87885,650.54884 C 414.37682,653.96963 424.14522,656.23556 432.2787,656.23556 C 439.76487,656.23556 446.43009,654.62632 450.82036,651.67836 C 454.72121,648.92331 456.52337,644.53307 456.52337,636.55748 L 456.52337,628.74645 C 455.37757,628.74645 455.21272,628.92066 453.75172,629.56042 L 453.75166,629.56051 z M 453.59406,566.12445 C 450.34024,563.83287 445.29361,562.53913 439.60027,562.53913 C 423.00904,562.53913 413.40508,573.61093 413.40508,592.79238 C 413.40508,610.86122 423.48869,622.57076 439.27532,622.57076 C 444.15741,622.57076 449.36164,621.26735 452.93761,619.49326 C 455.70201,618.01595 456.52324,616.55496 456.52324,613.30114 L 456.52324,571.9758 C 456.52324,568.71505 456.03382,567.74314 453.59399,566.12454 L 453.59406,566.12445 z M 352.14551,551.14247 C 376.70299,551.14247 391.35343,567.10329 391.35343,593.77815 C 391.35343,620.29784 376.54534,636.72204 352.63491,636.72204 C 328.23263,636.72204 313.10249,620.29778 313.10249,593.92873 C 313.10249,567.41146 327.90091,551.14247 352.14551,551.14247 z M 335.54491,618.49568 C 339.13054,622.8953 345.14876,625.33513 352.3031,625.33513 C 367.75579,625.33513 375.40912,614.91971 375.40912,593.77815 C 375.40912,572.62276 367.7557,562.38166 352.14547,562.38166 C 336.5237,562.38166 329.04649,572.46526 329.04649,594.10309 C 329.04649,606.14647 330.83931,612.81172 335.54478,618.49568 L 335.54491,618.49568 z M 314.28112,621.60849 C 315.25995,621.60849 316.22217,622.60362 316.22217,623.56826 L 316.22217,631.5511 C 316.22217,632.52269 315.25995,633.33668 314.28112,633.33668 L 261.24415,633.33668 C 260.27468,633.33668 259.46069,632.52269 259.46069,631.5511 L 259.46069,526.61799 C 259.46069,525.63706 260.27468,524.82518 261.24415,524.82518 L 273.44513,524.82518 C 274.41672,524.82518 275.231,525.63706 275.231,526.61799 L 275.231,621.60838 L 314.28107,621.60838 L 314.28112,621.60849 z "
         id="path6"
         style="fill:black;fill-rule:nonzero" />
      <g
         transform="matrix(2.201517,0,0,2.201517,256.5991,189.396)"
         id="_225673400">
   <path
   id="_228839536"
   d="M 163.239,27.8153 C 174.7903,21.72273 183.2542,13.5453 182.1461,9.5495 C 181.041,5.55261 176.07273,3.93569 171.0543,5.94484 C 166.04008,7.94754 157.5804,16.12824 152.1516,24.20324 C 146.72595,32.28658 151.69203,33.90349 163.2391,27.81531 L 163.239,27.8153 z "
   style="fill:#e9132e;fill-rule:nonzero" />

   <path
   id="_226149768"
   d="M 177.961,72.7125 C 184.40397,75.60855 193.0677,75.69837 199.25,73.134626 C 205.86728,70.619976 208.44598,67.159726 204.16698,65.308706 C 199.36753,63.401186 184.89768,62.650876 174.52298,63.943996 C 166.58707,65.508526 169.8102,69.625136 177.96101,72.712496 L 177.961,72.7125 z "
   style="fill:black;fill-rule:nonzero" />

   <path
   id="_226699800"
   d="M 162.718,113.365 C 169.95297,122.25103 181.048,130.6893 186.7109,131.2771 C 191.04653,130.56437 188.7317,123.39344 183.19703,116.8907 C 178.21285,110.96805 169.82163,105.6631 163.58583,103.9522 C 157.21006,101.87037 156.15858,105.27837 162.71799,113.365 L 162.718,113.365 z "
   style="fill:black;fill-rule:nonzero" />

   <path
   id="_138371256"
   d="M 130.312,86.3679 C 127.55159,86.266414 124.10094,83.81485 123.64247,84.86001 C 122.6763,87.06156 127.15621,93.53978 133.32037,91.49539 C 134.74378,91.02307 137.00197,89.59528 137.65162,89.02257 C 143.35731,83.99766 134.67329,86.93759 130.31201,86.3679 L 130.312,86.3679 z M 137.36101,57.689 C 131.96416,58.525846 121.89091,66.65513 125.30111,72.9881 C 125.53398,73.420923 126.83889,75.22065 129.65156,76.03391 C 136.2111,77.93073 143.81376,76.950847 146.90756,70.86143 C 147.45791,69.77677 148.25403,68.22513 147.95588,66.4586 C 147.20777,62.03643 142.14445,57.07131 137.36108,57.689 L 137.36101,57.689 z M 124.09451,55.83387 C 116.30178,56.94624 112.44491,62.95542 115.83042,71.89497 C 116.04848,72.472067 116.83389,72.319153 117.02205,71.604227 C 117.83421,68.517967 118.39951,65.929527 120.23448,63.174607 C 122.51503,59.751517 126.11105,58.845417 128.31357,56.113807 C 129.13752,55.092227 125.55,55.626538 124.09451,55.833898 L 124.09451,55.83387 z M 118.08861,47.5248 C 120.65236,46.725531 122.05327,46.30971 125.05629,45.81394 C 131.18301,44.80292 146.14019,46.75762 150.58699,49.02528 C 157.57936,52.58935 164.31199,57.79584 162.88839,66.57508 C 161.49488,75.17037 155.21648,79.89938 149.77579,84.94238 C 144.45382,89.8776 138.95879,94.35737 130.52259,96.53968 C 126.86568,97.485417 118.74049,95.902651 116.43429,92.27563 C 115.56645,90.91202 114.74784,89.29401 114.00947,87.96249 C 112.46524,85.17218 112.7014,84.89433 109.74227,83.21652 C 106.36732,81.30146 102.83438,79.04121 100.82949,75.43435 C 99.53966,73.11211 97.54972,65.78964 98.89194,62.57185 C 101.55512,56.18428 111.43184,49.58855 118.08864,47.52485 L 118.08861,47.5248 z "
   style="fill:black;fill-rule:nonzero" />

   <path
   id="_226702736"
   d="M 61.9753,21.2408 C 49.0145,34.0361 36.2299,55.3293 40.075,80.2081 C 42.28081,95.084 50.0918,106.0133 56.7805,114.161 C 65.549,124.3284 79.5059,133.6633 91.7924,131.5066 C 97.45859,130.38669 101.8358,125.74975 103.8984,121.94623 C 111.82265,107.31073 95.6461,87.84923 93.8176,81.26723 C 90.20553,71.88008 90.67675,66.91813 91.43872,57.71893 C 92.64846,43.15613 102.68872,26.97863 105.20652,22.86203 C 107.94019,18.39076 110.52958,14.73371 112.55463,11.34383 C 113.04834,10.511373 114.30732,8.5996 113.80181,6.60116 C 113.15422,4.09076 109.74938,2.80093 106.87253,2.4279 C 105.72478,2.282666 104.63052,2.21094 103.57781,2.198186 L 103.3662,2.198186 L 102.95052,2.198186 C 99.777579,2.2302774 97.021559,2.768837 94.545449,3.302186 C 85.462749,5.255646 78.356049,8.716036 73.410249,11.955216 C 69.809839,14.314756 65.847229,17.409666 61.975449,21.240886 L 61.9753,21.2408 z "
   style="fill:#009b85;fill-rule:nonzero" />

  </g>
    </g>
  </g>
</svg>

<svg xmlns="http://www.w3.org/2000/svg" width="522.639" height="473.397" version="1.0"><path d="M730.7 556.521c.979 0 1.784-.316 3.901-1.294 6.83-2.939 12.359-4.084 18.542-4.084 17.727 0 28.957 10.75 28.957 28.161v52.214c0 1.313-1.136 2.45-2.44 2.45h-10.408c-1.304 0-2.44-1.137-2.44-2.45v-51.889c0-11.72-6.025-17.247-18.874-17.247-4.074 0-7.486.646-11.064 1.94-4.873 1.803-6.665 4.068-6.665 8.625v58.57c0 1.314-.98 2.45-2.44 2.45H717.51c-1.303 0-2.423-1.136-2.423-2.45v-109c0-1.294 1.12-2.433 2.423-2.433h10.258c1.46 0 2.44 1.14 2.44 2.433v33.84l.491.164zm-148.477 38.751c0 16.742 10.576 27.972 26.51 27.972 5.704 0 13.18-2.283 19.679-6.019l1.303-.647c.657-.496 1.635-.654 2.118-.654 1.294 0 2.282 1.137 2.282 2.588v6.36c0 2.597-.49 3.244-3.579 4.554-6.997 3.254-16.1 5.221-24.235 5.221-24.078 0-39.215-15.96-39.215-41.175 0-26.352 14.15-42.944 36.768-42.944 21.156 0 34.983 14.641 34.983 36.926v4.393c0 1.3-.98 2.44-2.45 2.44h-54.164v.985zm41.483-14c0-11.555-8.29-19.521-20.501-19.521-12.041 0-20.824 8.78-20.981 21.148h41.483v-1.628zm82.875 36.419c1.145 0 2.124 1.136 2.124 2.93v6.507c0 1.96-.49 2.764-2.124 3.578-5.53 2.762-14.966 4.555-23.415 4.555-25.538 0-40.685-15.445-40.685-41.805 0-26.195 16.276-42.314 42.793-42.314 6.988 0 13.978 1.313 20.492 4.085 2.292.797 2.939 1.625 2.939 3.086v7.644c0 1.628-.814 2.758-2.124 2.758-.815 0-1.137-.141-2.598-.972-6.832-3.743-12.201-5.204-19.03-5.204-16.917 0-26.52 10.905-26.52 30.253 0 19.695 9.925 31.082 26.841 31.082 6.018 0 12.202-1.626 18.053-4.88l.82-.315c.972-.663 1.787-.988 2.434-.988zm-190.723-54.48c-1.31 0-2.44-1.138-2.44-2.439v-6.5c0-1.31 1.13-2.447 2.44-2.447h8.957v-19.191c0-1.304.97-2.447 2.43-2.447h10.242c1.303 0 2.449 1.143 2.449 2.447v19.19h23.424c1.294 0 2.43 1.137 2.43 2.448v6.5c0 1.468-1.136 2.44-2.43 2.44h-23.424v47.183c0 8.94 3.586 12.849 11.712 12.849 2.929 0 5.85-.64 8.29-1.95l1.803-.98c.804-.324 1.46-.482 1.94-.482 1.304 0 2.109.963 2.109 2.607v5.851c0 1.619-.315 2.275-1.784 2.922-4.067 2.125-11.064 3.435-16.923 3.435-14.144 0-22.268-7.667-22.268-20.83v-50.605h-8.957zm-28.51 68.307v-76.623c0-1.303 1.137-2.44 2.433-2.44h10.25c1.469 0 2.44 1.137 2.44 2.44v76.623c0 1.313-.971 2.45-2.44 2.45h-10.25c-1.296 0-2.433-1.137-2.433-2.45zm7.644-111.434c6.01 0 9.105 3.254 9.105 9.115 0 6.009-3.096 9.105-9.279 9.105-6.009 0-9.105-3.254-9.105-9.272 0-5.536 3.421-8.948 9.28-8.948zm-41.24 109.477c-6.019 3.096-11.545 4.406-17.573 4.406-23.254 0-38.718-16.276-38.718-40.678 0-24.899 16.6-42.147 40.511-42.147 4.882 0 9.43.831 13.015 2.292.972.482 2.44 1.303 4.226 2.45.985.472 1.31.637 2.289.637l.64-.165v-1.13c0-1.959.82-2.77 2.44-2.77h8.622c1.461 0 2.442 1.136 2.442 2.439v80.855c0 20.81-13.504 31.882-38.553 31.882-9.27 0-20.01-1.793-27.174-4.715-3.576-1.46-4.383-2.275-4.383-4.557v-6.823c0-1.635.807-2.771 2.11-2.771.654 0 1.459.324 2.115.647l2.118 1.136c6.498 3.42 16.266 5.687 24.4 5.687 7.486 0 14.151-1.61 18.541-4.558 3.901-2.755 5.703-7.145 5.703-15.12v-7.812c-1.145 0-1.31.175-2.771.814zm-.158-63.437c-3.254-2.291-8.3-3.585-13.994-3.585-16.591 0-26.195 11.072-26.195 30.253 0 18.07 10.084 29.779 25.87 29.779 4.882 0 10.087-1.304 13.663-3.078 2.764-1.477 3.585-2.938 3.585-6.192v-41.325c0-3.26-.49-4.233-2.929-5.851zm-101.448-14.982c24.557 0 39.207 15.961 39.207 42.636 0 26.52-14.808 42.944-38.718 42.944-24.402 0-39.533-16.424-39.533-42.793 0-26.518 14.799-42.787 39.044-42.787zm-16.601 67.354c3.586 4.4 9.604 6.84 16.758 6.84 15.453 0 23.106-10.416 23.106-31.558 0-21.155-7.653-31.396-23.264-31.396-15.621 0-23.099 10.083-23.099 31.721 0 12.043 1.793 18.709 6.499 24.393zm-21.264 3.112c.979 0 1.941.996 1.941 1.96v7.983c0 .972-.962 1.786-1.94 1.786h-53.038c-.97 0-1.783-.814-1.783-1.786V526.618c0-.98.814-1.793 1.783-1.793h12.201c.972 0 1.786.812 1.786 1.793v94.99h39.05z" style="fill:#000;fill-rule:nonzero" transform="translate(-259.46 -194.235)"/><path d="M163.239 27.815c11.551-6.092 20.015-14.27 18.907-18.265-1.105-3.997-6.073-5.614-11.092-3.605-5.014 2.003-13.474 10.183-18.902 18.258-5.426 8.084-.46 9.7 11.087 3.612z" style="fill:#e9132e;fill-rule:nonzero" transform="translate(-2.862 -4.84) scale(2.20152)"/><path d="M177.961 72.713c6.443 2.896 15.107 2.985 21.289.422 6.617-2.515 9.196-5.975 4.917-7.826-4.8-1.908-19.27-2.658-29.644-1.365-7.936 1.565-4.713 5.681 3.438 8.768zm-15.243 40.652c7.235 8.886 18.33 17.324 23.993 17.912 4.336-.713 2.02-7.884-3.514-14.386-4.984-5.923-13.375-11.228-19.611-12.939-6.376-2.082-7.427 1.326-.868 9.413zm-32.406-26.997c-2.76-.102-6.211-2.553-6.67-1.508-.966 2.202 3.514 8.68 9.678 6.635 1.424-.472 3.682-1.9 4.332-2.472 5.705-5.025-2.979-2.085-7.34-2.655zm7.049-28.679c-5.397.837-15.47 8.966-12.06 15.3.233.432 1.538 2.232 4.35 3.045 6.56 1.897 14.163.917 17.257-5.173.55-1.084 1.346-2.636 1.048-4.402-.748-4.423-5.812-9.388-10.595-8.77zm-13.266-1.855c-7.793 1.112-11.65 7.121-8.265 16.061.218.577 1.004.424 1.192-.29.812-3.087 1.378-5.675 3.212-8.43 2.281-3.423 5.877-4.33 8.08-7.061.824-1.022-2.764-.487-4.22-.28zm-6.006-8.31c2.563-.798 3.964-1.214 6.967-1.71 6.127-1.011 21.084.944 25.531 3.211 6.992 3.564 13.725 8.77 12.301 17.55-1.393 8.595-7.672 13.324-13.112 18.367-5.322 4.936-10.817 9.415-19.253 11.598-3.657.945-11.783-.637-14.089-4.264-.868-1.364-1.686-2.982-2.425-4.314-1.544-2.79-1.308-3.068-4.267-4.745-3.375-1.916-6.908-4.176-8.913-7.783-1.29-2.322-3.28-9.644-1.937-12.862 2.663-6.388 12.54-12.983 19.197-15.047z" style="fill:#000;fill-rule:nonzero" transform="translate(-2.862 -4.84) scale(2.20152)"/><path d="M61.975 21.24c-12.96 12.796-25.745 34.09-21.9 58.968 2.206 14.876 10.017 25.805 16.706 33.953 8.768 10.167 22.725 19.502 35.011 17.346 5.667-1.12 10.044-5.757 12.106-9.56 7.925-14.636-8.252-34.098-10.08-40.68-3.612-9.387-3.141-14.349-2.38-23.548 1.21-14.563 11.25-30.74 13.769-34.857 2.733-4.471 5.323-8.128 7.348-11.518.493-.833 1.752-2.744 1.247-4.743-.648-2.51-4.053-3.8-6.93-4.173a28.968 28.968 0 0 0-3.294-.23h-.627c-3.173.032-5.93.57-8.406 1.104-9.082 1.954-16.189 5.414-21.135 8.653-3.6 2.36-7.563 5.455-11.435 9.286z" style="fill:#009b85;fill-rule:nonzero" transform="translate(-2.862 -4.84) scale(2.20152)"/></svg>
